X: 40536
T: Tommy Mulhaire's
R: jig
M: 6/8
K: Edorian
|:EDE G2A|BeB dBd|edB GAB|ABG AGD|
EDE G2A|BeB dBd|edB GAB|AGF G2B:|
|:~d3 def|fge fdB|~A3 ABd|egf e2f|
g2e fed|edB {f}~g3|edB AGA|BGF G3:|

